chrome/icons/beaker.svg

<svg height="16" viewBox="137 64 750 896" width="16" xmlns="http://www.w3.org/2000/svg" xmlns:xlink="http://www.w3.org/1999/xlink">
  <path d="M887,867C887,880 884.583,892.083 879.75,903.25C874.917,914.417 868.333,924.25 860,932.75C851.667,941.25 841.917,947.917 830.75,952.75C819.583,957.583 807.5,960 794.5,960L229.5,960C216.5,960 204.417,957.583 193.25,952.75C182.083,947.917 172.333,941.25 164,932.75C155.667,924.25 149.083,914.417 144.25,903.25C139.417,892.083 137,880 137,867C137,849.333 141.5,833.167 150.5,818.5L370,462C379.333,446.333 384,429.667 384,412L384,128C381.333,128 378.583,128.083 375.75,128.25C372.917,128.417 370,128.5 367,128.5C361.333,128.5 355.75,128.167 350.25,127.5C344.75,126.833 339.75,125.417 335.25,123.25C330.75,121.083 327.083,117.833 324.25,113.5C321.417,109.167 320,103.333 320,96C320,87.3334 323.167,79.8334 329.5,73.5C335.833,67.1667 343.333,64.0001 352,64L672,64C680.667,64.0001 688.167,67.1667 694.5,73.5C700.833,79.8334 704,87.3334 704,96C704,103.333 702.583,109.167 699.75,113.5C696.917,117.833 693.25,121.083 688.75,123.25C684.25,125.417 679.25,126.833 673.75,127.5C668.25,128.167 662.667,128.5 657,128.5C654,128.5 651.083,128.417 648.25,128.25C645.417,128.083 642.667,128 640,128L640,412C640,430 644.833,446.667 654.5,462L873.5,818.5C882.5,833.167 887,849.333 887,867ZM374.5,576L649.5,576L600,495.5C584,469.5 576,441.667 576,412L576,128L448,128L448,412C448,427.667 446,442.167 442,455.5C438,468.833 432,482.167 424,495.5ZM823,867C823,861.667 821.667,856.667 819,852L689,640L335,640L205,852C202.333,856.667 201,861.667 201,867C201,874.667 203.75,881.417 209.25,887.25C214.75,893.083 221.5,896 229.5,896L794.5,896C802.833,896 809.667,893.167 815,887.5C820.333,881.833 823,875 823,867Z" fill="context-fill" fill-opacity="context-fill-opacity">
  </path>
</svg>

<svg xmlns="http://www.w3.org/2000/svg" width="16" height="16" viewBox="137 64 750 896"><path fill="context-fill" fill-opacity="context-fill-opacity" d="M887 867q0 19.5-7.25 36.25T860 932.75t-29.25 20T794.5 960h-565q-19.5 0-36.25-7.25t-29.25-20-19.75-29.5T137 867q0-26.5 13.5-48.5L370 462q14-23.5 14-50V128q-4 0-8.25.25t-8.75.25q-8.5 0-16.75-1t-15-4.25-11-9.75T320 96q0-13 9.5-22.5T352 64h320q13 0 22.5 9.5T704 96q0 11-4.25 17.5t-11 9.75-15 4.25-16.75 1q-4.5 0-8.75-.25T640 128v284q0 27 14.5 50l219 356.5q13.5 22 13.5 48.5M374.5 576h275L600 495.5q-24-39-24-83.5V128H448v284q0 23.5-6 43.5t-18 40ZM823 867q0-8-4-15L689 640H335L205 852q-4 7-4 15 0 11.5 8.25 20.25T229.5 896h565q12.5 0 20.5-8.5t8-20.5"/></svg>
